X: 1
T: Reid St. Sofa, The
M: 4/4
L: 1/8
R: reel
K: Amin
edef eAcA | BGcG  FGAF | EAAE AAFA | EFGc  BGcd |
eABc A2Bc | BGBc- cdef | ecA~B- BBdc | BABc BA~A2 :|
|: BcAE cEAE | EFAF dFAB | BcAF DEFG | BGFA G2AB |
Bc (3ccc  Acdc | Bd (3ddd GABd | edef ecAe | fedc BcA2 :|
